X: 20712
T: SOFTLY SWEET IN LYDIAN MEASURES
%R: reel, hornpipe
B: "Edinburgh Repository of Music" v.2 p.71 #2
F: http://digital.nls.uk/special-collections-of-printed-music/pageturner.cfm?id=87776133
Z: 2015 John Chambers <jc:trillian.mit.edu>
M: C
L: 1/16
K: D
de f3cd2A2 |\
B2A2 z2dc B2(AG) F2(ED) | f2e2 z2ef e4 zfed |\
(cd)e2 z2AA f3e (dc)(BA) | ^GFE2 z2eG A4 z2Af |\
e4- e>fe>f e>fe>f e>fe>f |
e4- e>fd>c d>Bc>d T^G4 |\
A4 z2d>e f2c2d2A2 | B2A2 z2d>c B2(AG) F2(ED) |\
f2e2 z2e>f (g>f)(f>e) (e>d)(d>c) | (c>BA2) z2Ad B4- B>Bc>d |\
c4 c{dc}BcA d4- dfe>d |
c2B2 z2AB A>BA>B A>dA>B |\
A>dA>B A>BG>F G6 ze | (fdB)e Tc4 d4 z4 |\
A2f>e g>fe>d c>AG>F G4 | G4 z2e2 (fcdB) Tc4 |\
d4 z2 |]

%%sep 2 1 500
%%sep 1 1 500

